icone/twitter.svg

<svg width="20" height="21" viewBox="0 0 20 21" fill="none" xmlns="http://www.w3.org/2000/svg">
<path d="M2.85714 0C1.28125 0 0 1.28451 0 2.8644V17.1864C0 18.7663 1.28125 20.0508 2.85714 20.0508H17.1429C18.7188 20.0508 20 18.7663 20 17.1864V2.8644C20 1.28451 18.7188 0 17.1429 0H2.85714ZM16.1205 3.75953L11.4866 9.06762L16.9375 16.2913H12.6696L9.33036 11.9096L5.50446 16.2913H3.38393L8.33929 10.6117L3.11161 3.75953H7.48661L10.5089 7.76521L14 3.75953H16.1205ZM14.433 15.0202L6.84821 4.96347H5.58482L13.2545 15.0202H14.4286H14.433Z" fill="#F9F5F1"/>
</svg>

<svg xmlns="http://www.w3.org/2000/svg" width="20" height="21" fill="none" viewBox="0 0 20 21">
  <path fill="#F9F5F1" d="M2.857 0A2.863 2.863 0 0 0 0 2.864v14.322a2.863 2.863 0 0 0 2.857 2.865h14.286A2.863 2.863 0 0 0 20 17.186V2.864A2.863 2.863 0 0 0 17.143 0zm13.264 3.76-4.634 5.308 5.45 7.223H12.67L9.33 11.91l-3.826 4.38h-2.12l4.955-5.68-5.227-6.85h4.375l3.022 4.005L14 3.76zm-1.688 11.26L6.848 4.963H5.585l7.67 10.057z"/>
</svg>
